X:63
T:tramp o dre
H:tramp o dre is an older form of can y cardi (crm)
N:transposed from Gm
B:alawon fy ngwlad - bennett
Z:ceri
M:4/4
L:1/8
Q:1/4=120
K:Em
B,|E2F>D E2zD|E>FGA B2zG|GBGF EE2FG|FDB,B,3:||
F|G>FGAABzB|AFDFA2zF|G>FGAABzB|AFDFA2BG|
F>GGCB,2B,2|EECF/A/G2zF|E>FGAB2eG|FGGDE2z:||
